X: 1
T: Boil The Kettle Early
M: 4/4
L: 1/8
R: reel
K: Amaj
|:~c3A B2AF|EAcA BAFA|Bc{d}cA ~B2af|ecBd cAAB:|
ce~e2 feec|ABcA {c}BAFA|ce~e2 fece|fa~a2 bafe|
ce~e2 feec|ABcA {c}BAFA|Bc{d}cA ~B2af|ecBd cAAB||
